X:11
T:Waterford
Z: id:dc-waltz-8
M:3/4
L:1/8
K:D Major
FG|A2 A2 d2|B4 e2|cB AB cA|d2 f2 a2|!
A2 A2 d2|B4 e2|cB AB cA|d4:|!
ef|ge Ac eg|fd Ad Fd|ce ge dc|d2 f2 af|!
ge Ac eg|fd Ad Fd|ce ge dc|d4:|!
FG|Ad Fd Ad|cd Gd Bd|ce ge dc|df af d2|!
Ad Fd Ad|cd Gd Bd|ce ge dc|e2 d2:|!
FG|A2 AB cd|B2 Gf ag|fd ge dc|ed cB AF|!
A2 AB cd|B2 Gf ag|fd ge dc|e2 d2:|!
